X:1
T:Canon and Gigue in D Major
T:Canon in D Major
T:Movement I: Canon
T:Composed by Johann Pachelbel 
C:Johann Pachelbel
%%score 1 2 3 4
L:1/8
Q:1/4=96
M:4/4
K:D
V:1 bass nm="Tenor Trombone" snm="T. Tbn."
V:2 bass nm="Tenor Trombone" snm="T. Tbn."
V:3 bass nm="Tenor Trombone" snm="T. Tbn."
V:4 bass nm="Bass Trombone" snm="B. Tbn."
V:1
"^Andante" z8 | z8 | z8 | z8 | z8 | z8 | z8 | z8 | z8 | z8 | z8 | z8 |!p! D2 F2 A2 G2 | %13
 F2 D2 F2 E2 | D2 B,2 D2 A2 | G2 B2 A2 G2 | D2 F2 A2 G2 | F2 D2 F2 E2 | D2 B,2 D2 A2 | %19
!<(! G2 B2 A2 G2!<)! |!mp! DCDD, C,A,E,F, | D,DCB, CFAB | GFEG FEDC | B,A,G,F, E,G,F,E, | %24
 DEFG AGAG | FBAG AGFE | DB,Bc dcBA |!<(! GFED ABAG!<)! |!mp! DCDD, C,A,E,F, | D,DCB, CFAB | %30
 GFEG FEDC | B,A,G,F, E,G,F,E, | z2 .D2 C4 | z2 .B,2 D4 | B4 A4 |!<(! B4 c4!<)! |!mf! .d2 .F2 E4 | %37
 z2 .D2 F4 | D6 D2 |!<(! D2 G2 E2 A2!<)! |!mf! AF/G/ AF/G/ A/A,/B,/C/ D/E/F/G/ | %41
 FD/E/ FF,/G,/ A,/B,/A,/G,/ A,/F,/G,/A,/ | G,B,/A,/ G,F,/E,/ F,/E,/D,/E,/ F,/G,/A,/B,/ | %43
!<(! G,B,/A,/ B,C/D/ C/B,/C/D/ E/F/G/A/!<)! |!f! AF/G/ AF/G/ A/A,/B,/C/ D/E/F/G/ | %45
 FD/E/ FF,/G,/ A,/B,/A,/G,/ A,/F,/G,/A,/ | G,B,/A,/ G,F,/E,/ F,/E,/D,/E,/ F,/G,/A,/B,/ | %47
!>(! G,B,/A,/ B,C/D/ C/B,/C/D/ E/F/G/A/!>)! | z8 |!mp! DB,/C/ DD,/E,/ F,/G,/F,/E,/ F,/D/C/D/ | z8 | %51
!>(! B,D/C/ DC/B,/ C/D/E/D/ C/D/B,/C/!>)! |!p! d z .A,2 .C2 .A,2 | .B,2 .F,2 .D2 .A,2 | %54
 .D2 .G2 .D2 .F2 | .D2 .G2 .E2 .E2 | z2 .A,2 z2 .A,2 | z2 .F,2 z2 .A,2 | z2 .G,2 z2 .F,2 | %59
!<(! z2 .G,2 z2 .E2!<)! |!mp! D4 A,4 | B,4 F,4 | G,4 D,4 | G,4 A,4 | D4 A,4 | B,4 F,4 | G,4 D,4 | %67
!<(! G,4 A,4!<)! |!mf! .A,.F,.F,.F, .E,.E,.E,.E, | .D,.D,.D,.D, .A,.A,.A,.A, | %70
 .B,.B,.B,.B, .A,.A,.A,.A, | .B,.B,.B,.B, .C.C.C.C | .A,.F,.F,.F, .E,.E,.E,.E, | %73
 .D,.D,.D,.D, .A,.A,.A,.A, | .B,.B,.B,.B, .A,.A,.A,.A, |!<(! .B,.B,.B,.B, .C.C.C.C!<)! | %76
!f! D4 A,4 | B,4 F,4 | G,4 D,4 | G,4 A,4 | D4 A,4 | B,4 F,4 | G,4 D,4 |!>(! G,4 A,4!>)! | %84
 z2!mf! D2 C4 | B,4 A,4 | D,3 E, F,4 | B,4 E,3 E, | A,3 A ABAG | F3 F FGFE | D=CB,C A,3 A, | %91
!<(! G,2 D2 TC3 C!<)! |!f! F,3 F FGFE | D3 D DEDC | B,4 D4 | D=CB,C A,3 A, | A,3 A ABAG | %97
 MF3 F FGFE | D=CB,C A,3 A, |!<(! G,2 D2 TC3 C!<)! |!ff! D2 D4 C2- | C2 B,4 A,2- | A,2 G,4 F,2- | %103
 F,3 E, E,4 | A,4 A,3 G, | F,4 F3 E | D6 D2 |!<(! !>!D4 !>!C4!<)! | %108
!fff! !>!F2 !>!F,2 !>!E,2 !>!E2 | !>!D2 !>!D,2 !>!C,2 !>!C2 | !>!B,2 !>!B2 !>!A2 !>!A,2 | %111
"^rit." !>!E,2 !>!B,2 !>!E,2 !>!E2 | !fermata!F8 |] %113
V:2
 z8 | z8 | z8 | z8 | z8 | z8 | z8 | z8 |!p! D4 A,4 | B,4 F,4 | G,4 D,4 | G,4 A,4 | D4 A,4 | %13
 B,4 F,4 | G,4 D,4 | G,4 A,4 | F,2 D,2 E,2 C2 | D2 F2 A2 A,2 | B,2 G,2 A,2 F,2 | %19
!<(! D,2 D2 TD2 DC!<)! |!mp! D4 A,4 | B,4 F,4 | G,4 D,4 | G,4 A,4 | DCDD, C,A,E,F, | D,DCB, CFAB | %26
 GFEG FEDC |!<(! B,A,G,F, E,G,F,E,!<)! |!mp! D,E,F,G, A,G,A,G, | F,B,A,G, A,G,F,E, | %30
 D,B,,B,C DCB,A, | G,F,E,D, A,B,A,G, | .D2 .F,2 E,4 | z2 .D,2 F,4 | D6 D2 |!<(! D2 G2 E2 A2!<)! | %36
!mf! AF/G/ AF/G/ A/A,/B,/C/ D/E/F/G/ | FD/E/ FF,/G,/ A,/B,/A,/G,/ A,/F,/G,/A,/ | %38
 G,B,/A,/ G,F,/E,/ F,/E,/D,/E,/ F,/G,/A,/B,/ |!<(! G,B,/A,/ B,C/D/ C/B,/C/D/ E/F/G/A/!<)! | %40
!mf! FD/E/ FD/E/ F/C/D/E/ F/E/D/C/ | DB,/C/ DD,/E,/ F,/G,/F,/E,/ F,/D,/E,/F,/ | %42
 E,G,/F,/ E,D,/C,/ D,/C,/B,,/C,/ D,/E,/F,/G,/ |!<(! E,G,/F,/ G,A,/B,/ A,/G,/A,/B,/ C/D/E/F/!<)! | %44
!f! FD/E/ FD/E/ F/C/D/E/ F/E/D/C/ | DB,/C/ DD,/E,/ F,/G,/F,/E,/ F,/D,/E,/F,/ | %46
 E,G,/F,/ E,D,/C,/ D,/C,/B,,/C,/ D,/E,/F,/G,/ |!>(! E,G,/F,/ G,A,/B,/ A,/G,/A,/B,/ C/D/E/F/!>)! | %48
!mp! FD/E/ FD/E/ F/C/D/E/ F/E/D/C/ | z8 | B,D/C/ B,A,/G,/ A,/G,/F,/G,/ A,/B,/C/D/ |!>(! z8!>)! | %52
!p! D4 A,4 | B,4 F,4 | G,4 D,4 | G,4 A,4 | D4 A,4 | B,4 F,4 | G,4 D,4 |!<(! G,4 A,4!<)! | %60
!mp! .F,.A,.A,.A, .A,.A,.A,.A, | .F,.F,.F,.F, .F,.F,.A,.A, | .G,.G,.G,.D .D.D.D.D | %63
 .D.D.B,.B, .A,.A,.E.C | .A,.F,.F,.F, .E,.E,.E,.E, | .D,.D,.D,.D, .A,.A,.A,.A, | %66
 .B,.B,.B,.B, .A,.A,.A,.A, |!<(! .B,.B,.B,.B, .C.C.C.C!<)! |!mf! D4 A,4 | B,4 F,4 | G,4 D,4 | %71
 G,4 A,4 | D4 A,4 | B,4 F,4 | G,4 D,4 |!<(! G,4 A,4!<)! |!f! A,6 A,2 | D,6 A,2 | G,4 A,4 | %79
 G,2 D2 D3 C | z2 D2 C4 | B,4 A,4 | D,3 E, F,4 |!>(! B,4 E,3 E,!>)! |!mf! F,3 F FGFE | D3 D DEDC | %86
 B,4 D4 | D=CB,C A,3 A, | F,3 F FGFE | D3 D DEDC | B,4 D4 |!<(! D=CB,C A,3 A,!<)! |!f! A,3 A ABAG | %93
 F3 F FGFE | D=CB,C A,3 A, | G,2 D2 TC3 C | D2 D4 C2- | C2 B,4 A,2- | A,2 G,4 F,2- | %99
!<(! F,3 E, E,4!<)! |!ff! A,4 A,3 G, | F,4 F3 E | D6 D2 | D4 C4 | !>!D2 !>!D,2 !>!C,2 !>!C2 | %105
 !>!B,2 !>!B,,2 !>!A,,2 !>!A,2 | !>!G,2 !>!G2 !>!F2 !>!F,2 |!<(! !>!E,2 !>!B,2 !>!E,2 !>!E2!<)! | %108
!fff! !>!D2 !>!D,2 !>!C,2 !>!C2 | !>!B,2 !>!B,,2 !>!A,,2 !>!A,2 | !>!G,2 !>!G2 !>!F2 !>!F,2 | %111
 G,3 E TD2 C2 | !fermata!D8 |] %113
V:3
 z8 | z8 | z8 | z8 |!p! D4 A,4 | B,4 F,4 | G,4 D,4 | G,4 A,4 | F,4 E,4 | D,4 C,4 | B,,4 A,,4 | %11
 B,,4 C,4 | F4 E4 | D4 C4 | B,4 A,4 | B,4 C4 | D4 A,4 | B,4 F,4 | G,4 D,4 |!<(! G,4 A,4!<)! | %20
!mp! D,2 F,2 A,2 G,2 | F,2 D,2 F,2 E,2 | D,2 B,,2 D,2 A,2 | G,2 B,2 A,2 G,2 | F,2 D,2 E,2 C2 | %25
 D2 F2 A2 A,2 | B,2 G,2 A,2 F,2 |!<(! D,2 D2 TD2 DC!<)! |!mp! D4 A,4 | B,4 F,4 | G,4 D,4 | %31
 G,4 A,4 | D,E,F,G, A,G,A,G, | F,B,A,G, A,G,F,E, | D,B,,B,C DCB,A, |!<(! G,F,E,D, A,B,A,G,!<)! | %36
!mf! D4 A,4 | B,4 F,4 | G,4 D,4 |!<(! G,4 A,4!<)! |!mf! .D2 .F,2 E,4 | z2 .B,,2 D,4 | D,6 D,2 | %43
!<(! D,2 G,2 E,2 A,2!<)! |!f! D4 A,4 | B,4 F,4 | G,4 D,4 |!>(! G,4 A,4!>)! | %48
!mp! .D,2 .A,,2 .C,2 .A,,2 | .B,,2 .F,,2 .D,2 .A,,2 | .D,2 .G,2 .D,2 .F,2 | %51
!>(! .D,2 .G,2 .E,2 .E,2!>)! | z!p! .F,.G,.F, .E, z z2 | z .A,.D,.B, .A, z z2 | %54
 z .B,.C.B, .A, z z2 | z .B,.A,.B, .C z z2 | .F.D.E.D .C.C,.D,.C, | .B,,.B,.A,.B, .C.C,.F,.E, | %58
 .D,.D.E.G .F.F,.A,.F |!<(! .D.G.F.G .E.A,.G,.A,!<)! |!mp! .F.D.E.D .C.C,.D,.C, | %61
 .B,,.B,.A,.B, .C.C,.F,.E, | .D,.D.E.G .F.F,.A,.F | .D.G.F.G .E.A,.G,.A, | .F,.D.E.D .C.A,.A,.A, | %65
 .F,.B,.A,.B, .C.F,.A,.A, | .G,.D.E.G .F.D.D.D |!<(! .D.G.F.G .E.A,.E.A,!<)! | %68
!mf! .D.A,.A,.A, .A,C/D/ .E.C | .B,.F,.F,.F, .F,A,/G,/ .F,.E, | .D,.G,.G,.D .DD,/E,/ .F,.A, | %71
 .G,.D.B,.B, .A,A,/G,/ .F,.E, | .D,D/C/ .D.F, .A,A,/B,/ .C.A, | %73
 .F,B,,/C,/ .D,.B,, .C,A,/G,/ .F,.E, | .D,G,/F,/ .E,.G, .F,D,/E,/ .F,.A, | %75
!<(! .G,B,/A,/ .G,.F, .E,A,/G,/ .F,.E,!<)! |!f! .D,D/E/ .F.D .CA,/B,/ .C.A, | %77
 .F,D/E/ .F.D .FF/E/ .D.C | .B,B,/A,/ .B,.C .DF/E/ .D.F | .GD/C/ .B,.B, .A,.E,.A,.A, | %80
 .F,D/C/ .D.F, .A,A,/B,/ .C.A, | .F, z D,4 A,2 | G,B,/A,/ .B,.C .DF/E/ .D.F | %83
!>(! .G z D,2 D,3 C,!>)! |!mf! A,,6 A,,2 | D,6 A,,2 | G,,4 A,,4 | G,,2 D,2 D,3 C, | D,2 D,2 C,4 | %89
 B,,4 A,,4 | D,3 E, F,4 |!<(! B,,4 E,3 E,!<)! |!f! D4 A,4 | B,4 F,4 | G,4 D,4 | G,4 A,4 | D4 A,4 | %97
 B,4 F,4 | G,4 D,4 |!<(! G,4 A,4!<)! | F,,2 F,4 E,2 | D,2 D,4 =C,2 | B,,4 D,2 A,,2 | B,,4 A,,4 | %104
 F,,2 F,4 E,2 | D,2 D,4 =C,2 | B,,4 D,2 A,,2 |!<(! !>!B,,4 !>!A,,4!<)! | !>!D4 !>!A,4 | %109
 !>!B,4 !>!F,4 | !>!G,4 !>!D,4 | !>!G,4 !>!A,4 | !fermata!A,8 |] %113
V:4
!p! D4 A,4 | B,4 F,4 | G,4 D,4 | G,4 A,4 | F,4 E,4 | D,4 C,4 | B,,4 A,,4 | B,,4 C,4 | D,4 C,4 | %9
 B,,4 A,,4 | G,,4 F,,4 | G,,4 E,,4 | D4 C4 | B,4 A,4 | G,4 F,4 | G,4 E,4 | D4 C4 | B,4 A,4 | %18
 G,4 F,4 |!<(! G,4 E,4!<)! |!mp! F,,2 D,2 E,2 C2 | D2 F2 A2 A,2 | B,2 G,2 A,2 F,2 | D,2 D2 TD2 DC | %24
 D4 A,4 | B,4 F,4 | G,4 D,4 |!<(! G,4 A,4!<)! | z2!mp! .F,2 E,4 | z2 .D,2 F,4 | B,4 A,4 | B,4 C4 | %32
 D4 A,4 | B,4 F,4 | G,4 D,4 |!<(! G,4 A,4!<)! |!mf! .F,2 .D,2 C,4 | z2 .B,,2 D,4 | B,4 A,4 | %39
!<(! B,4 C4!<)! |!mf! D4 A,4 | B,4 F,4 | G,4 D,4 |!<(! G,4 A,4!<)! | z2!f! .D,2 z2 .C,2 | %45
 z2 .B,,2 z2 .D,2 | z2 .D,2 z2 .D,2 |!>(! z2 .D,2 z2 .E,2!>)! |!mp! D4 A,4 | B,4 F,4 | G,4 D,4 | %51
!>(! G,4 A,4!>)! | z4 z!p! .E.F.E | .D z z2 z .A,.G,.A, | .B, z z2 z .A,.G,.A, | %55
 .B, z z2 z .C,.B,,.C, | .D,.F,.G,.F, .E,.E.F.E | .D,.F,.D,.B, .A,.A,,.G,,.A,, | %58
 .B,,.B,.C.B, .A,.A,,.F,,.A,, |!<(! .B,,.B,.A,.B, .C.C,.B,,.C,!<)! |!mp! .D,.F,.G,.F, .E,.E.F.E | %61
 .D.F,.D,.B, .A,.A,,.G,,.A,, | .B,,.B,.C.B, .A,.A,,.F,,.A,, | .B,,.B,.A,.B, .C.C,.B,,.C, | %64
 .D,.A,.A,.A, .A,.C,.D,.C, | .B,,.F,.F,.F, .F,.C,.F,.E, | .D,.G,.G,.D .D.F,.A,.F | %67
!<(! .D.D.B,.B, .A,.A,.G,.A,!<)! |!mf! .F,D,/E,/ .F,.D, .C,.A,.A,.A, | %69
 .F,B,,/C,/ .D,.B,, .C,.F,.A,.A, | .G,G,/F,/ .E,.G, .F,.D.D.D | .DB,/A,/ .G,.F, .E,.A,.E.C | %72
 .F,D,/E,/ .F,.D, .C,C/D/ .E.C | .B,D/E/ .F.D .FF/E/ .D.C | .B,B,/A,/ .B,.C .DF/E/ .D.F | %75
!<(! .GD/C/ .B,.B, .A,.E,.A,.A,!<)! |!f! .F,F,/E,/ .F,.D, .C,C/D/ .E.C | %77
 .B,B,,/C,/ .B,,.B,, .C, z .F,.E, | .D,G,/F,/ .E,.G, .F,D,/E,/ .F,.A, | %79
 .G,B,/A,/ .G,.F, .E,A,/G,/ .F,.E, | .D, z A,4 A,2 | D,D/E/ .F.D .FF/E/ .D.C | .B, z G,2 A,4 | %83
!>(! G,D/C/ .B,.B, .A,.E,.A,.A,!>)! |!mf! D4 A,4 | B,4 F,4 | G,4 D,4 | G,4 A,4 | D4 A,4 | B,4 F,4 | %90
 G,4 D,4 |!<(! G,4 A,4!<)! | z2!f! D,4 C,2- | C,2 B,,4 A,,2- | A,,2 G,,4 F,,2- | F,,3 E,, E,,4 | %96
 F,,2 F,4 E,2 | D,2 D,4 =C,2 | B,,4 D,2 A,,2 |!<(! B,,4 A,,4!<)! |!ff!!ff! D4 A,4 | B,4 F,4 | %102
 G,4 D,4 | G,4 A,4 | D4 A,4 | B,4 F,4 | G,4 D,4 |!<(! !>!G,4 !>!A,4!<)! | %108
!fff!!fff! !>!A,,4 !>!A,,3 !>!G,, | !>!F,,4 !>!F,3 !>!E, | !>!D,6 !>!D,2 | !>!D,4 !>!C,4 | %112
 !fermata!D,8 |] %113

